inst/assets/svg/wi-cloudy-windy.svg

<?xml version="1.0" encoding="UTF-8"?>
<svg xmlns="http://www.w3.org/2000/svg" xmlns:xlink="http://www.w3.org/1999/xlink" width="30pt" height="30pt" viewBox="0 0 30 30" version="1.1">
<g id="surface46">
<path style=" stroke:none;fill-rule:nonzero;fill:rgb(0%,0%,0%);fill-opacity:1;" d="M 3.101563 21.039063 C 3.101563 20.800781 3.179688 20.589844 3.351563 20.429688 C 3.519531 20.269531 3.730469 20.191406 3.980469 20.191406 L 12.949219 20.191406 C 13.191406 20.191406 13.378906 20.269531 13.539063 20.429688 C 13.699219 20.589844 13.769531 20.789063 13.769531 21.039063 C 13.769531 21.28125 13.691406 21.480469 13.53125 21.640625 C 13.371094 21.800781 13.179688 21.878906 12.941406 21.878906 L 3.980469 21.878906 C 3.730469 21.878906 3.519531 21.800781 3.351563 21.640625 C 3.179688 21.480469 3.101563 21.269531 3.101563 21.039063 Z M 5.730469 17.980469 C 5.730469 17.738281 5.820313 17.539063 6 17.378906 C 6.140625 17.230469 6.339844 17.148438 6.589844 17.148438 L 15.589844 17.148438 C 15.820313 17.148438 16.011719 17.230469 16.171875 17.378906 C 16.328125 17.53125 16.398438 17.730469 16.398438 17.96875 C 16.398438 18.210938 16.320313 18.410156 16.171875 18.578125 C 16.019531 18.75 15.820313 18.828125 15.589844 18.828125 L 6.589844 18.828125 C 6.359375 18.828125 6.160156 18.738281 5.988281 18.570313 C 5.820313 18.398438 5.730469 18.210938 5.730469 17.980469 Z M 6.351563 15.648438 C 6.351563 15.738281 6.410156 15.789063 6.519531 15.789063 L 7.949219 15.789063 C 8.039063 15.789063 8.121094 15.738281 8.179688 15.648438 C 8.410156 15.109375 8.75 14.660156 9.21875 14.300781 C 9.691406 13.941406 10.210938 13.738281 10.800781 13.699219 L 11.339844 13.628906 C 11.449219 13.628906 11.511719 13.570313 11.511719 13.449219 L 11.578125 12.929688 C 11.691406 11.839844 12.160156 10.941406 12.96875 10.210938 C 13.789063 9.480469 14.738281 9.121094 15.839844 9.121094 C 16.929688 9.121094 17.871094 9.480469 18.671875 10.191406 C 19.46875 10.910156 19.941406 11.808594 20.078125 12.890625 L 20.148438 13.480469 C 20.148438 13.589844 20.210938 13.640625 20.328125 13.640625 L 21.929688 13.640625 C 22.839844 13.640625 23.609375 13.960938 24.25 14.601563 C 24.890625 15.238281 25.210938 16.011719 25.210938 16.921875 C 25.210938 17.800781 24.878906 18.558594 24.238281 19.199219 C 23.589844 19.851563 22.820313 20.171875 21.929688 20.171875 L 15.039063 20.171875 C 14.921875 20.171875 14.859375 20.230469 14.859375 20.339844 L 14.859375 21.679688 C 14.859375 21.800781 14.921875 21.859375 15.039063 21.859375 L 21.929688 21.859375 C 22.609375 21.859375 23.25 21.730469 23.871094 21.46875 C 24.488281 21.210938 25.011719 20.859375 25.449219 20.421875 C 25.890625 19.980469 26.238281 19.449219 26.5 18.839844 C 26.761719 18.230469 26.890625 17.589844 26.890625 16.921875 C 26.890625 16.019531 26.671875 15.191406 26.230469 14.429688 C 25.789063 13.671875 25.191406 13.070313 24.429688 12.628906 C 23.671875 12.191406 22.828125 11.96875 21.929688 11.96875 L 21.621094 11.96875 C 21.289063 10.628906 20.589844 9.53125 19.519531 8.671875 C 18.441406 7.820313 17.21875 7.390625 15.839844 7.390625 C 14.421875 7.390625 13.171875 7.828125 12.078125 8.71875 C 10.988281 9.601563 10.300781 10.730469 10 12.109375 C 9.140625 12.300781 8.378906 12.710938 7.730469 13.320313 C 7.078125 13.929688 6.628906 14.671875 6.371094 15.539063 L 6.371094 15.558594 C 6.359375 15.601563 6.351563 15.621094 6.351563 15.648438 Z M 7.5 24.128906 C 7.5 23.890625 7.589844 23.691406 7.761719 23.53125 C 7.910156 23.371094 8.109375 23.300781 8.351563 23.300781 L 17.339844 23.300781 C 17.578125 23.300781 17.789063 23.378906 17.949219 23.539063 C 18.121094 23.699219 18.199219 23.898438 18.199219 24.140625 C 18.199219 24.378906 18.121094 24.578125 17.949219 24.75 C 17.78125 24.921875 17.578125 25 17.339844 25 L 8.351563 25 C 8.121094 25 7.921875 24.921875 7.75 24.75 C 7.578125 24.570313 7.5 24.371094 7.5 24.128906 Z M 7.5 24.128906 "/>
</g>
</svg>

<?xml version="1.0" encoding="utf-8"?>
<!-- Generator: Adobe Illustrator 22.0.1, SVG Export Plug-In . SVG Version: 6.00 Build 0)  -->
<svg version="1.1" id="Layer_1" xmlns="http://www.w3.org/2000/svg" xmlns:xlink="http://www.w3.org/1999/xlink" x="0px" y="0px"
	 viewBox="0 0 30 30" style="enable-background:new 0 0 30 30;" xml:space="preserve">
<path d="M3.1,21.04c0-0.24,0.08-0.45,0.25-0.61s0.38-0.24,0.63-0.24h8.97c0.24,0,0.43,0.08,0.59,0.24c0.16,0.16,0.23,0.36,0.23,0.61
	c0,0.24-0.08,0.44-0.24,0.6c-0.16,0.16-0.35,0.24-0.59,0.24H3.98c-0.25,0-0.46-0.08-0.63-0.24S3.1,21.27,3.1,21.04z M5.73,17.98
	c0-0.24,0.09-0.44,0.27-0.6c0.14-0.15,0.34-0.23,0.59-0.23h9c0.23,0,0.42,0.08,0.58,0.23s0.23,0.35,0.23,0.59
	c0,0.24-0.08,0.44-0.23,0.61c-0.15,0.17-0.35,0.25-0.58,0.25h-9c-0.23,0-0.43-0.09-0.6-0.26S5.73,18.21,5.73,17.98z M6.35,15.65
	c0,0.09,0.06,0.14,0.17,0.14h1.43c0.09,0,0.17-0.05,0.23-0.14c0.23-0.54,0.57-0.99,1.04-1.35s0.99-0.56,1.58-0.6l0.54-0.07
	c0.11,0,0.17-0.06,0.17-0.18l0.07-0.52c0.11-1.09,0.58-1.99,1.39-2.72c0.82-0.73,1.77-1.09,2.87-1.09c1.09,0,2.03,0.36,2.83,1.07
	c0.8,0.72,1.27,1.62,1.41,2.7l0.07,0.59c0,0.11,0.06,0.16,0.18,0.16h1.6c0.91,0,1.68,0.32,2.32,0.96c0.64,0.64,0.96,1.41,0.96,2.32
	c0,0.88-0.33,1.64-0.97,2.28c-0.65,0.65-1.42,0.97-2.31,0.97h-6.89c-0.12,0-0.18,0.06-0.18,0.17v1.34c0,0.12,0.06,0.18,0.18,0.18
	h6.89c0.68,0,1.32-0.13,1.94-0.39s1.14-0.61,1.58-1.05s0.79-0.97,1.05-1.58s0.39-1.25,0.39-1.92c0-0.9-0.22-1.73-0.66-2.49
	c-0.44-0.76-1.04-1.36-1.8-1.8c-0.76-0.44-1.6-0.66-2.5-0.66h-0.31c-0.33-1.34-1.03-2.44-2.1-3.3c-1.08-0.85-2.3-1.28-3.68-1.28
	c-1.42,0-2.67,0.44-3.76,1.33c-1.09,0.88-1.78,2.01-2.08,3.39c-0.86,0.19-1.62,0.6-2.27,1.21s-1.1,1.35-1.36,2.22v0.02
	C6.36,15.6,6.35,15.62,6.35,15.65z M7.5,24.13c0-0.24,0.09-0.44,0.26-0.6c0.15-0.16,0.35-0.23,0.59-0.23h8.99
	c0.24,0,0.45,0.08,0.61,0.24c0.17,0.16,0.25,0.36,0.25,0.6c0,0.24-0.08,0.44-0.25,0.61c-0.17,0.17-0.37,0.25-0.61,0.25H8.35
	c-0.23,0-0.43-0.08-0.6-0.25C7.58,24.57,7.5,24.37,7.5,24.13z"/>
</svg>
